svg/black/gas.svg

<svg height="32" viewBox="0 0 32 32" width="32" xmlns="http://www.w3.org/2000/svg"><path d="m16 32c-8.836556 0-16-7.163444-16-16s7.163444-16 16-16 16 7.163444 16 16-7.163444 16-16 16zm9-9.4207905v-12.95717578l-6.9906347 2.48051098v7.2196848zm-10.176918 3.4207905v-12.861362l-6.823082-3.18074109v12.86307909zm10.0093652-16.84261135.0618764-.02163536-6.7292246-3.13575329-.0618764.02129194-.1776337.06284556-.0837764.0298774-9.57205951 3.39606443 6.72922461 3.13609667 2.8428349-1.0082763.1675528-.0597548 6.7108007-2.38091972z" fill-rule="evenodd"/></svg>

<svg height="32" width="32" xmlns="http://www.w3.org/2000/svg"><path d="M16 32C7.163 32 0 24.837 0 16S7.163 0 16 0s16 7.163 16 16-7.163 16-16 16zm9-9.42V9.621l-6.99 2.48v7.22zM14.823 26V13.139L8 9.958V22.82zm10.01-16.843l.061-.021L18.165 6l-.062.021-.177.063-.084.03L8.27 9.51l6.729 3.136 2.843-1.008.167-.06 6.711-2.38z" fill-rule="evenodd"/></svg>
